X: 12798
T: Feargan
R: reel
M: 4/4
K: Aminor
d|:c<AAG ~E3 d|cAAB cded|c<AAG ~E2 (DE)|G2 Ge (dc)Bd:|
~c2 (cd) eage|~c2 (ce) dcBd|~c2 cd e^fge|abag e<gdB|
~c2 cd eage|~c2 ce dcBd|(A<B)(c<d) e^fge|abag e<gdB||

